chains/zetachain/logo.svg

<svg width="178" height="178" viewBox="0 0 178 178" fill="none" xmlns="http://www.w3.org/2000/svg">
<circle cx="89" cy="89" r="89" fill="#005741"/>
<path d="M112.109 108.673V120.693H62.5228C63.2068 112.782 65.7595 107.216 74.5873 99.389L112.109 67.3788V95.4683H125.616V43.79H48.8127V69.5498H62.3196V57.297H103.123L65.7843 89.1634L65.695 89.2476C50.0468 103.102 48.8027 114.284 48.8027 127.459V134.21H125.621V108.683H112.114L112.109 108.673Z" fill="white"/>
</svg>

<svg xmlns="http://www.w3.org/2000/svg" width="178" height="178" fill="none" viewBox="0 0 178 178"><circle cx="89" cy="89" r="89" fill="#005741"/><path fill="#fff" d="M112.109 108.673v12.02H62.523c.684-7.911 3.236-13.477 12.064-21.304l37.522-32.01v28.09h13.507V43.79H48.813v25.76H62.32V57.297h40.803L65.784 89.163l-.089.085c-15.648 13.854-16.892 25.036-16.892 38.211v6.751h76.818v-25.527h-13.507z"/></svg>
